!!!COM: Beethoven, Ludwig van
!!!CDT: 1770///-1827///
!!!OTL: Piano Sonata no. 7 in D major
!!!OPS: 10
!!!ONM: 3
!!!OMV: 3
!!!OMD: Minuetto: Allegro
**kern	**kern	**dynam
*staff2	*staff1	*staff1/2
*Ipiano	*Ipiano	*Ipiano
*>[A,A,B,B,C,A,B]	*>[A,A,B,B,C,A,B]	*>[A,A,B,B,C,A,B]
*>norep[A,B,C,A,B]	*>norep[A,B,C,A,B]	*>norep[A,B,C,A,B]
*>A	*>A	*>A
*clefF4	*clefG2	*clefG2
*k[f#c#]	*k[f#c#]	*k[f#c#]
*D:	*D:	*D:
*M3/4	*M3/4	*M3/4
*MM132	*MM132	*MM132
4r	([4a/	p
=1	=1	=1
*	*^	*
2.D\ 2.A\	4a/]	2.f#\	.
.	4ff#/	.	.
.	4ee/	.	.
=2	=2	=2	=2
2.E\ 2.A\	4dd/	2.g\	.
.	4cc#/	.	.
.	4ee/)	.	.
=3	=3	=3	=3
2.F#\ 2.A\	[2.dd/	2.a\	.
=4	=4	=4	=4
2.D\ 2.A\	(4dd/]	2.f#\	.
.	4a/	.	.
.	4b/)	.	.
=5	=5	=5	=5
*^	*	*	*
2.A/	(2C#\	(4a/	2e\	.
.	.	4g/)	.	.
.	4AA\	4a'/	4c#\	.
*v	*v	*	*	*
=6	=6	=6	=6
2D\	4e/ 4g/	2A\	.
.	4d/ 4f#/	.	.
4GG\	4e'/ 4g'/	4B\	.
=7	=7	=7	=7
2AA/)	2.d/ 2.f#/	2.A\	>
[4A\	.	.	.
*	*v	*v	*
=8	=8	=8
(4A\]	4c#/ 4e/	.
4G\	4r	.
4F#\)	[4b/	p
=9	=9	=9
*	*^	*
2.E\ 2.G\ 2.B\	(4b/]	2.g\	.
.	4gg/	.	.
.	4ff#/	.	.
=10	=10	=10	=10
*^	*	*	*
2.B/ 2.d#/	2.F#\ 2.A\	4ee/	2.a\	.
.	.	4dd#/	.	.
.	.	4ff#/)	.	.
=11	=11	=11	=11	=11
2.B/ 2.e/	2.G\	[2.ee/	2.b\	.
=12	=12	=12	=12	=12
2.A/ 2.c#/	2.E\ 2.G\	(4ee/]	2.g\	.
.	.	4b/	.	.
.	.	4cc#/)	.	.
*v	*v	*	*	*
=13	=13	=13	=13
2F#\ 2A\ 2d\	(4cc#/	2a\	.
.	4dd/)	.	.
4D\	4a'/	4f#\	.
=14	=14	=14	=14
2A\	(4a/	2c#\	.
.	4g/)	.	.
4AA/	4e'/	4G\ 4c#\	.
*	*v	*v	*
=15	=15	=15
*^	*	*
*	*^	*	*
2.G/	2DD/	2.DD\	2.c#/ (2.e/	.
*	*v	*v	*	*
.	4AA/	.	.
=16	=16	=16	=16
4F#/	4DD\ 4D\	4d/)	.
4r	4r	4r	.
*v	*v	*	*
=:|!|:	=:|!|:	=:|!|:
*>B	*>B	*>B
4FFF#/	4r	.
=17	=17	=17
2FF#/	2.r	.
(8EE#/L	.	.
8FF#/J	.	.
=18	=18	=18
8GG/L	2.r	.
8FF#/	.	.
8EEn/	.	.
8DD/	.	.
8CC#/	.	.
8FF#/J)	.	.
=19	=19	=19
*^	*	*
2B/	4DD'\	2.r	.
.	4BBB'\	.	.
(8A#/L	4r	.	.
8B/J	.	.	.
=20	=20	=20	=20
8c#/L	4r	4r	.
8B/J	.	.	.
4r	8An\L	4r	.
.	8G#\	.	.
4r	8F#\	4r	.
.	8B\J)	.	.
*v	*v	*	*
=21	=21	=21
4G#'\	2ee\	.
4E'\	.	.
4r	(8dd#\L	.
.	8ee\J	.
=22	=22	=22
2.r	8ff#\L	.
.	8ee\	.
.	8ddn\	.
.	8cc#\	.
.	8b\	.
.	8ee\J)	.
*clefG2	*	*
=23	=23	=23
2a/	4cc#'\	.
.	4aa'\	.
(8g#/L	4aa'\	.
8a/J	.	.
=24	=24	=24
8b/L	4aa'\	.
8a/	.	.
8gn/	4aa'\	.
8f#/	.	.
8g/	4aa'\	.
8e/J)	.	.
=25	=25	=25
*	*^	*
2.d/ 2.f#/	[2.aa/	4r	.
.	.	4ff#\	p
.	.	4ee\	.
*	*v	*v	*
=26	=26	=26
*^	*	*
4dd/	2.e\ 2.g\	2.aa\_	.
4cc#/	.	.	.
4ee/	.	.	.
=27	=27	=27	=27
4dd/	[2.f#\ 2.a\	2.aa\_	<
4cc#/	.	.	.
4b/	.	.	.
=28	=28	=28	=28
4a/	2f#\]	4aa\]	.
4a#/	.	4aa#\	.
4b'/	4d#\	4bb'\	.
=29	=29	=29	=29
(4an/	2e\	(4aan\	p
4gn/)	.	4ggn\)	.
4a'/	4c#\	4aa'\	.
=30	=30	=30	=30
(4g/	2d\	4ee\ (4gg\	.
4f#/)	.	4dd\ 4ff#\)	.
4g'/	4G\	4b'\ 4ee'\ 4gg'\	.
*v	*v	*	*
=31	=31	=31
*	*^	*
4r	2dd/ (2ff#/	[2a\	>
*clefF4	*	*	*
(4AA/	.	.	.
*	*v	*v	*
*	*^	*
[4A\)	4ee/)	4a\] 4cc#\	>
=32	=32	=32	=32
4A\]	4r	4r	.
4G\	4r	4r	.
4F#\	([4b/	4b\	p
=33	=33	=33	=33
2.E\ 2.G\ 2.B\	4b/]	2.g\	.
.	4gg/	.	.
.	4ff#/	.	.
=34	=34	=34	=34
*^	*	*	*
2.B/ 2.d#/	2.F#\ 2.A\	4ee/	2.a\	.
.	.	4dd#/	.	.
.	.	4ff#/)	.	.
=35	=35	=35	=35	=35
2.B/ 2.dn/	2.G\	(4ddn/	2.b\	.
.	.	4bb/	.	<
.	.	4aa/	.	.
*v	*v	*	*	*
*clefG2	*	*	*
=36	=36	=36	=36
2.A/ 2.cn/ 2.d/ 2.f#/	4gg/	2.ccn\	.
.	4ff#/	.	.
.	4aa/)	.	.
=37	=37	=37	=37
2.B/ 2.d/ 2.g/	(2gg/	4r	.
.	.	[2dd\	.
.	[4ddd/	.	.
=38	=38	=38	=38
2.B-/ 2.d/ 2.e/ 2.g#/	4ddd/]	2.dd\] 2.gg#\	.
.	4ccc#/	.	.
.	4eee/)	.	.
=39	=39	=39	=39
2A/ 2c#/	(4ddd/	2ee\	p
.	4ccc#/	.	.
4Bn/ 4d/	4bb/	4dd\	.
=40	=40	=40	=40
2c#/ 2e/	4aa/	2a\	.
.	4gg/	.	.
4d/ 4f#/	4ff#/)	4a\	.
*clefF4	*	*	*
=41	=41	=41	=41
(2G\	4g/ 4ee/	2b\	.
.	4f#/ 4dd#/	.	.
4G#\	4b/ 4ddn/	4fn\	.
=42	=42	=42	=42
2A\	4b/	2d\ 2f#\	.
.	4a/	.	.
4AA/)	4a'/	4c#\ 4g\	.
=43	=43	=43	=43
*^	*	*	*
4r	[2.DD\	2f#/ 2a/	2d\	.
4r	.	.	.	.
4AA/	.	4r	4r	pp
*	*	*v	*v	*
=44	=44	=44	=44
(4AA/	4DD\]	2.r	.
4F#/	4r	.	.
4E/)	4r	.	.
=45	=45	=45	=45
2.D/	[2.EE\	4r	.
.	.	4r	.
.	.	4A/ 4g/ 4a/	pp
=46	=46	=46	=46
*	*	*^	*
2.C#/	2.EE\]	2g\	4A/ (4a/	.
.	.	.	4B/ 4b/)	.
.	.	4g\	4A'/ 4a'/	.
*	*	*v	*v	*
=47	=47	=47	=47
4r	[2.DD\	2A/ 2f#/ 2a/	.
4r	.	.	.
4AA/	.	4r	.
=48	=48	=48	=48
(4AA/	4DD\]	2.r	.
4F#/	4r	.	.
4E/)	4r	.	.
*v	*v	*	*
=49	=49	=49
[2.EE/ 2.D/	4r	.
.	4r	.
.	4A/ 4g/ 4a/	.
=50	=50	=50
*	*^	*
2.EE/] 2.C#/	2g\	4A/ (4a/	.
.	.	4B-/ 4b-/)	.
.	4g\	4A'/ 4a'/	.
=51	=51	=51	=51
2.DD/ 2.D/	2f#\	4A/ (4a/	.
.	.	4G#/ 4g#/)	.
.	4f#\	4A'/ 4a'/	.
=52	=52	=52	=52
2.EE/ 2.C#/	2gn\	4A/ (4a/	.
.	.	4Bn/ 4bn/)	.
.	4g\	4A'/ 4a'/	.
*	*v	*v	*
=53	=53	=53
[2.DD/ 2.C#/	[2.A/ (2.g/ [2.a/	pp
=54	=54	=54
4DD/] 4D/	4A/] 4f#/) 4a/]	.
4r	4r	.
=:|!	=:|!	=:|!
*>C	*>C	*>C
*clefF4	*clefF4	*clefF4
*k[f#]	*k[f#]	*k[f#]
*M3/4	*M3/4	*M3/4
4DD'/	(12G\L	f
.	12B\	.
.	12d\J)	.
=55	=55	=55
4GG'/	12G\L	.
.	12B\	.
.	12d\J	.
4r	12G\L	.
.	12B\	.
.	12d\J	.
*clefG2	*	*
4dd'\	12G\L	f
.	12B\	.
.	12d\J	.
=56	=56	=56
4gg'\	12G\L	.
.	12B\	.
.	12d\J	.
4r	12G\L	.
.	12B\	.
.	12d\J	.
*clefF4	*	*
4GG'/	12G\L	p
.	12B\	.
.	12d\J	.
=57	=57	=57
(4GG/	12A\L	.
.	12c\	.
.	12d\J	.
4FF#/)	12A\L	.
.	12c\	.
.	12d\J	.
4AA'/	12A\L	.
.	12c\	.
.	12d\J	.
=58	=58	=58
4DD'/	12A\L	.
.	12c\	.
.	12d\J	.
4r	12A\L	.
.	12c\	.
.	12d\J	.
4DD'/	12A\L	f
.	12c\	.
.	12d\J	.
=59	=59	=59
4C'/	12F#\L	.
.	12A\	.
.	12d\J	.
4r	12F#\L	.
.	12A\	.
.	12d\J	.
*clefG2	*	*
4dd'\	12F#\L	f
.	12A\	.
.	12d\J	.
=60	=60	=60
4ccc'\	12F#\L	.
.	12A\	.
.	12d\J	.
4r	12F#\L	.
.	12A\	.
.	12d\J	.
*clefF4	*	*
4C'/	12F#\L	p
.	12A\	.
.	12d\J	.
=61	=61	=61
(4C/	12G\L	.
.	12B\	.
.	12d\J	.
4BB/)	12G\L	.
.	12B\	.
.	12d\J	.
4D'/	12G\L	.
.	12B\	.
.	12d\J	.
=62	=62	=62
4GG'/	12G\L	.
.	12B\	.
.	12d\J	.
4r	12G\L	.
.	12B\	.
.	12d\J	.
4BBB'/	12F#\L	f
.	12B\	.
.	12d#\J	.
=63	=63	=63
4BB'/	12F#\L	.
.	12B\	.
.	12d#\J	.
4r	12F#\L	.
.	12B\	.
.	12d#\J	.
*clefG2	*	*
4b'/	12F#\L	f
.	12B\	.
.	12d#\J	.
=64	=64	=64
4bb'\	12F#\L	.
.	12B\	.
.	12d#\J	.
4r	12F#\L	.
.	12B\	.
.	12d#\J	.
*clefF4	*	*
4EE'/	12G\L	.
.	12B\	.
.	12e\J	.
=65	=65	=65
4E'\	12G\L	.
.	12B\	.
.	12e\J	.
4r	12G\L	.
.	12B\	.
.	12e\J	.
*clefG2	*	*
4ee'\	12G\L	.
.	12B\	.
.	12e\J	.
=66	=66	=66
4eee'\	12G\L	.
.	12B\	.
.	12e\J	.
4r	12G\L	.
.	12B\	.
.	12e\J	.
*clefF4	*	*
4AAA'/	12G\L	.
.	12c#\	.
.	12e\J	.
*	*clefG2	*clefG2
=67	=67	=67
[2.AA/ [2.E/ [2.G/	(12g\L	ff
.	12cc#\	.
.	12ee\J)	.
.	(8gg\L	.
.	8ff#\)	.
.	8ee'\	.
.	8dd'\J	.
=68	=68	=68
2.AA/] 2.E/] 2.G/]	8cc#'/L	.
.	8b'/	.
.	8a'/	.
.	8g'/	.
.	8f#'/	.
.	8e'/J	.
=69	=69	=69
4D\ 4F#\	(8d/L	p
.	8a/	.
4r	8g/	.
.	8f#/	.
4r	8e/	.
.	8d/J	.
=70	=70	=70
4r	8cn/L	.
.	8e/	.
4r	8d/	.
.	8c/	.
4DD'/	8B/	f
.	8A/J)	.
*	*clefF4	*clefF4
=71	=71	=71
4GG'/	(12G\L	.
.	12B\	.
.	12d\J)	.
4r	12G\L	.
.	12B\	.
.	12d\J	.
*clefG2	*	*
(4dd\	12G\L	f
.	12B\	.
.	12d\J	.
=72	=72	=72
4gg'\)	12G\L	.
.	12B\	.
.	12d\J	.
4r	12G\L	.
.	12B\	.
.	12d\J	.
*clefF4	*	*
4GG'/	12G\L	p
.	12B\	.
.	12d\J	.
=73	=73	=73
(4GG/	12A\L	.
.	12c\	.
.	12d\J	.
4FF#/)	12A\L	.
.	12c\	.
.	12d\J	.
4AA'/	12A\L	.
.	12c\	.
.	12d\J	.
=74	=74	=74
4DD'/	12A\L	.
.	12c\	.
.	12d\J	.
4r	12A\L	.
.	12c\	.
.	12d\J	.
(4DD/	12A\L	f
.	12c\	.
.	12d\J	.
=75	=75	=75
4C'/)	12F#\L	.
.	12A\	.
.	12d\J	.
4r	12F#\L	.
.	12A\	.
.	12d\J	.
*clefG2	*	*
(4dd\	12F#\L	f
.	12A\	.
.	12d\J	.
=76	=76	=76
4ccc'\)	12F#\L	.
.	12A\	.
.	12d\J	.
4r	12F#\L	.
.	12A\	.
.	12d\J	.
*clefF4	*	*
4C'/	12F#\L	p
.	12A\	.
.	12d\J	.
=77	=77	=77
(4C/	12G\L	.
.	12B\	.
.	12d\J	.
4BB/)	12G\L	.
.	12B\	.
.	12d\J	.
4D'/	12G\L	.
.	12B\	.
.	12d\J	.
=78	=78	=78
4GG'/	12G\L	.
.	12B\	.
.	12d\J	.
4r	12G\L	.
.	12B\	.
.	12d\J	.
(4BBB/	12F#\L	f
.	12B\	.
.	12d#\J	.
=79	=79	=79
4BB'/)	12F#\L	.
.	12B\	.
.	12d#\J	.
4r	12F#\L	.
.	12B\	.
.	12d#\J	.
*clefG2	*	*
(4b\	12F#\L	f
.	12B\	.
.	12d#\J	.
=80	=80	=80
4bb'\)	12F#\L	.
.	12B\	.
.	12d#\J	.
4r	12F#\L	.
.	12B\	.
.	12d#\J	.
*clefF4	*	*
(4EE/	12G\L	f
.	12B\	.
.	12e\J	.
=81	=81	=81
4E\)	12G\L	.
.	12B\	.
.	12e\J	.
4r	12G\L	.
.	12B\	.
.	12e\J	.
*clefG2	*	*
(4ee\	12G\L	f
.	12B\	.
.	12e\J	.
=82	=82	=82
4eee'\)	12G\L	.
.	12B\	.
.	12e\J	.
4r	12G\L	.
.	12B\	.
.	12e\J	.
*clefF4	*	*
(4AAA/	12G\L	ff
.	12c#\	.
.	12e\J	.
*	*clefG2	*clefG2
=83	=83	=83
4AA'/)	12c#/L	ff
.	12e/	.
.	12g/J	.
4r	12c#/L	.
.	12e/	.
.	12g/J	.
(4AA/	12c#/L	ff
.	12e/	.
.	12g/J	.
=84	=84	=84
4A'\)	12c#/L	.
.	12e/	.
.	12g/J	.
4r	12c#/L	.
.	12e/	.
.	12g/J	.
*clefG2	*	*
(4a\	12c#/L	ff
.	12e/	.
.	12g/J	.
=85	=85	=85
4aa'\)	12c#/L	.
.	12e/	.
.	12g/J	.
4r	4r	.
4r	4r	.
=86	=86	=86
4r	4r	.
4r	4r	.
=	=	=
*-	*-	*-
!!!ENC: Craig Stuart Sapp
!!!END: 2005/08/26/
